!!!OTL: ZWISCHEN BERG UND TIEFEM THAL
!!!ARE: Europa, Mitteleuropa, Deutschland
!!!SCT: E0170A
!!!YEM: Copyright 1995, estate of Helmut Schaffrath.
**kern
*ICvox
*Ivox
*M3/4
*k[f#]
*G:
=1
{8.d
16d
4g
4b
=2
4b
8a
8g
4a}
=3
{8d
8f#
4a
4cc
=4
4cc
4b
4r}
=5
{8.dd
16cc
4b
4dd
=6
4dd
8cc
8b
4cc}
=7
{8.cc
16b
4a
4cc
=8
4cc
8b
8a
4b}
=9
{8g
8b
4dd
8b
8g
=10
4a
4g
4r}
=11
{8.dd
16cc
4b
4dd
=12
4dd
8cc
8b
4cc}
=13
{8.cc
16b
4a
4cc
=14
4cc
8b
8a
4b}
=15
{8g
8b
4dd
8b
8g
=16
4a
4g
4r}
==
!!!AGN: erzaehlendes Volks - Lied, Sage, Tier - Maerchen, Scherz
!!!ONB: ESAC (Essen Associative Code) Database: ERK1
!!!AMT: simple triple
!!!AIN: vox
!!!EED: Helmut Schaffrath
!!!EEV: 1.0
*-
